src/Icons/icons/upgrade.svg

<svg viewBox="0 0 12 12" fill="#4C4C4C" xmlns="http://www.w3.org/2000/svg"><path fill-rule="evenodd" clip-rule="evenodd" d="M11.5 6L6 0 .5 6h4v3.5h3V6h4zm-4 4v.75h-3V10h3zm0 2v-.75h-3V12h3z"/></svg>

<svg viewBox="0 0 12 12" fill="#4C4C4C" xmlns="http://www.w3.org/2000/svg">
<path fill-rule="evenodd" clip-rule="evenodd" d="M11.5 6L6 0L0.5 6H4.5V9.5H7.5V6H11.5ZM7.5 10V10.75H4.5V10H7.5ZM7.5 12V11.25H4.5V12H7.5Z"/>
</svg>
